; generated by Slic3r 1.1.6 on 2014-07-27 at 13:20:14

; perimeters extrusion width = 0.50mm
; infill extrusion width = 0.50mm
; solid infill extrusion width = 0.50mm
; top infill extrusion width = 0.50mm
; support material extrusion width = 0.50mm

G21 ; set units to millimeters
G28 ; home all axes
G90 ; use absolute coordinates
G92 E0
M82 ; use absolute distances for extrusion
T0
G92 E0
G1 F1500.000 E-1.40000
G92 E0
G1 Z0.250 F7800.000
G1 X58.805 Y24.799 F7800.000
G1 E1.40000 F1500.000
G1 X63.140 Y14.677 E1.58231 F1800.000
G1 X64.061 Y12.839 E1.61635
G1 X65.458 Y10.939 E1.65538
G1 X67.406 Y9.610 E1.69442
G1 X70.319 Y8.975 E1.74379
G1 X118.418 Y8.975 E2.54012
G1 X119.739 Y9.101 E2.56210
G1 X120.759 Y9.297 E2.57930
G1 X123.717 Y10.632 E2.63303
G1 X133.197 Y17.956 E2.83136
G1 X134.794 Y19.691 E2.87040
G1 X135.724 Y21.858 E2.90944
G1 X135.918 Y23.495 E2.93674
G1 X135.918 Y25.495 E2.96985
G1 X135.521 Y27.820 E3.00889
G1 X134.374 Y29.880 E3.04793
G1 X132.609 Y31.443 E3.08697
G1 X130.116 Y32.392 E3.13114
G1 X73.543 Y42.216 E4.08178
G1 X72.574 Y42.378 E4.09805
G1 X71.413 Y42.475 E4.11733
G1 X69.270 Y42.379 E4.15284
G1 X67.172 Y41.932 E4.18837
G1 X66.242 Y41.613 E4.20465
G1 X65.176 Y41.146 E4.22391
G1 X63.337 Y40.042 E4.25943
G1 X61.704 Y38.651 E4.29494
G1 X61.038 Y37.927 E4.31122
G1 X60.323 Y37.009 E4.33049
G1 X59.231 Y35.163 E4.36601
G1 X58.457 Y33.162 E4.40152
G1 X58.215 Y32.207 E4.41783
G1 X58.024 Y31.061 E4.43707
G1 X57.942 Y30.081 E4.45335
G1 X57.943 Y28.909 E4.47275
G1 X58.213 Y26.792 E4.50810
G1 X58.784 Y24.871 E4.54127
G1 X59.265 Y24.995 F7800.000
G1 X63.587 Y14.901 E4.72307 F1800.000
G1 X64.508 Y13.063 E4.75711
G1 X65.865 Y11.241 E4.79471
G1 X67.766 Y9.998 E4.83232
G1 X70.319 Y9.475 E4.87547
G1 X118.418 Y9.475 E5.67180
G1 X119.645 Y9.592 E5.69221
G1 X120.665 Y9.788 E5.70941
G1 X123.412 Y11.028 E5.75930
G1 X132.892 Y18.352 E5.95763
G1 X134.419 Y20.033 E5.99524
G1 X135.274 Y22.137 E6.03285
G1 X135.418 Y23.495 E6.05546
G1 X135.418 Y25.495 E6.08857
G1 X135.021 Y27.732 E6.12618
G1 X133.879 Y29.695 E6.16379
G1 X132.131 Y31.146 E6.20139
G1 X130.030 Y31.899 E6.23834
G1 X73.461 Y41.723 E7.18893
G1 X72.491 Y41.885 E7.20520
G1 X71.413 Y41.975 E7.22311
G1 X69.353 Y41.886 E7.25726
G1 X67.334 Y41.459 E7.29142
G1 X66.404 Y41.140 E7.30770
G1 X65.414 Y40.707 E7.32559
G1 X63.644 Y39.648 E7.35975
G1 X62.072 Y38.312 E7.39389
G1 X61.406 Y37.589 E7.41017
G1 X60.741 Y36.736 E7.42807
G1 X59.689 Y34.962 E7.46222
G1 X58.942 Y33.039 E7.49637
G1 X58.700 Y32.084 E7.51268
G1 X58.522 Y31.020 E7.53055
G1 X58.441 Y30.040 E7.54684
G1 X58.441 Y28.950 E7.56487
G1 X58.698 Y26.914 E7.59885
G1 X59.244 Y25.067 E7.63073
G1 F1500.000 E-2.36927
G92 E0
T1
G92 E0
G1 F1200.000 E-1.40000
G92 E0
G1 X63.011 Y70.010 F7800.000
G1 E1.40000 F1200.000
G1 X63.537 Y68.843 E1.42210 F1800.000
G1 X64.246 Y67.778 E1.44420
G1 X65.122 Y66.844 E1.46631
G1 X66.018 Y66.147 E1.48592
G1 X67.131 Y65.531 E1.50788
G1 X67.269 Y65.215 E1.51384
G1 X66.811 Y63.451 E1.54531
G1 X66.788 Y63.136 E1.55076
G1 X66.830 Y62.733 E1.55777
G1 X66.919 Y62.430 E1.56321
G1 X67.053 Y62.162 E1.56839
G1 X67.043 Y61.905 E1.57283
G1 X66.919 Y61.699 E1.57698
G1 X66.762 Y60.948 E1.59024
G1 X66.838 Y60.360 E1.60048
G1 X68.183 Y57.675 E1.65234
G1 X68.886 Y57.172 E1.66726
G1 X70.002 Y57.017 E1.68672
G1 X70.254 Y57.108 E1.69135
G1 X70.375 Y57.120 E1.69345
G1 X71.120 Y57.017 E1.70644
G1 X71.373 Y57.108 E1.71108
G1 X71.494 Y57.120 E1.71318
G1 X72.239 Y57.017 E1.72617
G1 X72.491 Y57.108 E1.73080
G1 X72.612 Y57.120 E1.73290
G1 X73.357 Y57.017 E1.74590
G1 X73.715 Y57.146 E1.75247
G1 X73.884 Y57.148 E1.75537
G1 X74.106 Y57.074 E1.75942
G1 X74.919 Y57.481 E1.77512
G1 X75.196 Y57.459 E1.77993
G1 X75.597 Y57.172 E1.78844
G1 X76.713 Y57.017 E1.80790
G1 X76.966 Y57.108 E1.81254
G1 X77.087 Y57.120 E1.81464
G1 X77.832 Y57.017 E1.82763
G1 X78.084 Y57.108 E1.83226
G1 X78.205 Y57.120 E1.83436
G1 X78.950 Y57.017 E1.84736
G1 X79.203 Y57.108 E1.85199
G1 X79.324 Y57.120 E1.85409
G1 X80.069 Y57.017 E1.86708
G1 X80.321 Y57.108 E1.87172
G1 X80.442 Y57.120 E1.87382
G1 X81.187 Y57.017 E1.88681
G1 X81.440 Y57.108 E1.89144
G1 X81.561 Y57.120 E1.89354
G1 X82.306 Y57.017 E1.90654
G1 X82.558 Y57.108 E1.91117
G1 X82.679 Y57.120 E1.91327
G1 X83.425 Y57.017 E1.92626
G1 X83.782 Y57.146 E1.93283
G1 X83.951 Y57.148 E1.93574
G1 X84.173 Y57.074 E1.93979
G1 X84.523 Y57.249 E1.94654
G1 X84.721 Y57.264 E1.94998
G1 X85.292 Y57.074 E1.96036
G1 X85.526 Y57.191 E1.96488
G1 X85.712 Y57.209 E1.96812
G1 X86.183 Y57.075 E1.97657
G1 X88.211 Y57.075 E2.01158
G1 X89.006 Y57.519 E2.02730
G1 X89.630 Y58.531 E2.04784
G1 X89.671 Y59.440 E2.06356
G1 X89.582 Y59.616 E2.06695
G1 X89.592 Y59.873 E2.07140
G1 X89.717 Y60.079 E2.07555
G1 X89.874 Y60.830 E2.08880
G1 X89.798 Y61.418 E2.09904
G1 X89.582 Y61.848 E2.10734
G1 X89.592 Y62.105 E2.11178
G1 X89.717 Y62.310 E2.11593
G1 X89.874 Y63.061 E2.12919
G1 X89.798 Y63.650 E2.13943
G1 X89.553 Y64.138 E2.14886
G1 X89.539 Y64.336 E2.15230
G1 X89.645 Y64.656 E2.15812
G1 X89.907 Y64.845 E2.16370
G1 X97.572 Y64.845 E2.29606
G1 X97.870 Y64.509 E2.30382
G1 X97.773 Y63.690 E2.31808
G1 X97.861 Y63.184 E2.32695
G1 X98.053 Y62.801 E2.33435
G1 X98.043 Y62.544 E2.33879
G1 X97.919 Y62.338 E2.34294
G1 X97.762 Y61.587 E2.35619
G1 X97.838 Y60.999 E2.36643
G1 X98.083 Y60.510 E2.37587
G1 X98.097 Y60.312 E2.37931
G1 X97.685 Y59.072 E2.40187
G1 X98.457 Y57.531 E2.43163
G1 X99.833 Y57.074 E2.45667
G1 X99.996 Y57.156 E2.45981
G1 X100.146 Y57.180 E2.46243
G1 X101.322 Y57.017 E2.48294
G1 X101.574 Y57.108 E2.48757
G1 X101.695 Y57.120 E2.48967
G1 X102.440 Y57.017 E2.50266
G1 X102.684 Y57.105 E2.50714
G1 X102.820 Y57.115 E2.50949
G1 X103.145 Y57.050 E2.51522
G1 X104.871 Y57.234 E2.54520
G1 X104.978 Y57.223 E2.54705
G1 X105.426 Y57.074 E2.55520
G1 X105.589 Y57.156 E2.55835
G1 X105.739 Y57.180 E2.56097
G1 X106.915 Y57.017 E2.58147
G1 X107.167 Y57.108 E2.58611
G1 X107.288 Y57.120 E2.58821
G1 X108.033 Y57.017 E2.60120
G1 X108.286 Y57.108 E2.60584
G1 X108.407 Y57.120 E2.60794
G1 X109.152 Y57.017 E2.62093
G1 X109.404 Y57.108 E2.62556
G1 X109.525 Y57.120 E2.62766
G1 X110.270 Y57.017 E2.64065
G1 X110.523 Y57.108 E2.64529
G1 X110.644 Y57.120 E2.64739
G1 X111.389 Y57.017 E2.66038
G1 X111.641 Y57.108 E2.66502
G1 X111.762 Y57.120 E2.66712
G1 X112.507 Y57.017 E2.68011
G1 X112.760 Y57.108 E2.68474
G1 X112.881 Y57.120 E2.68684
G1 X113.626 Y57.017 E2.69983
G1 X114.385 Y57.290 E2.71377
G1 X114.629 Y57.256 E2.71803
G1 X114.747 Y57.172 E2.72053
G1 X115.863 Y57.017 E2.73999
G1 X116.116 Y57.108 E2.74462
G1 X116.237 Y57.120 E2.74672
G1 X116.982 Y57.017 E2.75971
G1 X117.205 Y57.097 E2.76381
G1 X117.325 Y57.110 E2.76589
G1 X117.832 Y57.041 E2.77473
G1 X119.741 Y57.408 E2.80831
G1 X120.395 Y57.907 E2.82250
G1 X120.868 Y58.867 E2.84099
G1 X120.866 Y59.689 E2.85519
G1 X120.582 Y60.254 E2.86610
G1 X120.592 Y60.511 E2.87055
G1 X120.717 Y60.717 E2.87470
G1 X120.874 Y61.468 E2.88795
G1 X120.798 Y62.056 E2.89819
G1 X120.553 Y62.545 E2.90763
G1 X120.539 Y62.743 E2.91106
G1 X120.951 Y63.983 E2.93363
G1 X120.756 Y64.371 E2.94111
G1 X121.050 Y64.845 E2.95075
G1 X129.043 Y64.845 E3.08878
G1 X130.068 Y65.870 E3.11382
G1 X130.068 Y69.320 E3.17340
G1 X129.043 Y70.345 E3.19843
G1 X71.180 Y70.345 E4.19770
G1 X71.109 Y70.374 E4.19901
G1 X70.019 Y70.382 E4.21785
G1 X69.498 Y70.518 E4.22714
G1 X69.024 Y70.774 E4.23644
G1 X68.626 Y71.137 E4.24574
G1 X68.354 Y71.531 E4.25400
G1 X68.157 Y72.031 E4.26330
G1 X68.084 Y72.565 E4.27260
G1 X68.142 Y73.100 E4.28190
G1 X68.326 Y73.606 E4.29120
G1 X68.626 Y74.054 E4.30050
G1 X69.024 Y74.416 E4.30980
G1 X69.498 Y74.673 E4.31910
G1 X70.019 Y74.809 E4.32840
G1 X70.557 Y74.816 E4.33770
G1 X71.138 Y74.673 E4.34803
G1 X72.379 Y74.022 E4.37223
G1 X74.068 Y75.043 E4.40632
G1 X74.068 Y78.791 E4.47105
G1 X73.416 Y79.704 E4.49041
G1 X72.150 Y80.126 E4.51346
G1 X70.886 Y80.325 E4.53556
G1 X69.750 Y80.325 E4.55518
G1 X68.486 Y80.126 E4.57728
G1 X67.138 Y79.663 E4.60188
G1 X66.140 Y79.123 E4.62149
G1 X65.122 Y78.346 E4.64359
G1 X64.158 Y77.298 E4.66819
G1 X63.468 Y76.220 E4.69029
G1 X63.012 Y75.181 E4.70990
G1 X62.662 Y73.799 E4.73451
G1 X62.568 Y72.668 E4.75412
G1 X62.662 Y71.391 E4.77622
G1 X62.987 Y70.081 E4.79954
G1 F1200.000 E3.39954
G92 E0
G1 X98.396 Y65.345 F7800.000
G1 E1.40000 F1200.000
G1 X98.665 Y64.767 E1.41102 F1800.000
G1 X98.485 Y64.553 E1.41585
G1 X98.339 Y64.217 E1.42218
G1 X98.278 Y63.704 E1.43110
G1 X98.341 Y63.342 E1.43744
G1 X98.624 Y62.778 E1.44833
G1 X98.614 Y62.521 E1.45277
G1 X98.391 Y62.152 E1.46021
G1 X98.268 Y61.567 E1.47054
G1 X98.323 Y61.147 E1.47786
G1 X98.623 Y60.549 E1.48941
G1 X98.637 Y60.351 E1.49284
G1 X98.225 Y59.111 E1.51540
G1 X98.811 Y57.940 E1.53801
G1 X99.794 Y57.614 E1.55589
G1 X100.033 Y57.734 E1.56051
G1 X100.311 Y57.712 E1.56532
G1 X100.397 Y57.650 E1.56715
G1 X101.268 Y57.529 E1.58234
G1 X101.521 Y57.620 E1.58698
G1 X101.642 Y57.633 E1.58908
G1 X102.387 Y57.529 E1.60207
G1 X102.645 Y57.622 E1.60681
G1 X102.781 Y57.632 E1.60917
G1 X103.168 Y57.555 E1.61598
G1 X104.926 Y57.743 E1.64651
G1 X105.033 Y57.732 E1.64836
G1 X105.387 Y57.614 E1.65481
G1 X105.626 Y57.734 E1.65943
G1 X105.904 Y57.712 E1.66424
G1 X105.990 Y57.650 E1.66606
G1 X106.861 Y57.529 E1.68126
G1 X107.114 Y57.620 E1.68589
G1 X107.235 Y57.633 E1.68799
G1 X107.980 Y57.529 E1.70099
G1 X108.232 Y57.620 E1.70562
G1 X108.353 Y57.633 E1.70772
G1 X109.098 Y57.529 E1.72071
G1 X109.351 Y57.620 E1.72535
G1 X109.472 Y57.633 E1.72745
G1 X110.217 Y57.529 E1.74044
G1 X110.469 Y57.620 E1.74507
G1 X110.590 Y57.633 E1.74717
G1 X111.335 Y57.529 E1.76017
G1 X111.588 Y57.620 E1.76480
G1 X111.709 Y57.633 E1.76690
G1 X112.454 Y57.529 E1.77989
G1 X112.707 Y57.620 E1.78453
G1 X112.827 Y57.633 E1.78663
G1 X113.573 Y57.529 E1.79962
G1 X114.153 Y57.738 E1.81028
G1 X114.244 Y57.838 E1.81260
G1 X114.622 Y57.877 E1.81916
G1 X114.938 Y57.650 E1.82588
G1 X115.810 Y57.529 E1.84108
G1 X116.062 Y57.620 E1.84572
G1 X116.183 Y57.633 E1.84782
G1 X116.928 Y57.529 E1.86081
G1 X117.190 Y57.623 E1.86561
G1 X117.394 Y57.612 E1.86913
G1 X117.818 Y57.548 E1.87654
G1 X119.531 Y57.877 E1.90668
G1 X119.998 Y58.233 E1.91682
G1 X120.368 Y58.983 E1.93125
G1 X120.366 Y59.570 E1.94139
G1 X120.012 Y60.276 E1.95504
G1 X120.022 Y60.533 E1.95948
G1 X120.245 Y60.903 E1.96692
G1 X120.367 Y61.488 E1.97725
G1 X120.313 Y61.908 E1.98457
G1 X120.013 Y62.506 E1.99611
G1 X119.999 Y62.704 E1.99955
G1 X120.411 Y63.944 E2.02211
G1 X119.947 Y64.871 E2.04001
G1 X120.240 Y65.345 E2.04964
G1 X128.836 Y65.345 E2.19809
G1 X129.568 Y66.078 E2.21597
G1 X129.568 Y69.113 E2.26840
G1 X128.836 Y69.845 E2.28628
G1 X70.972 Y69.845 E3.28554
G1 X70.902 Y69.874 E3.28686
G1 X69.958 Y69.882 E3.30316
G1 X69.319 Y70.047 E3.31456
G1 X68.738 Y70.360 E3.32596
G1 X68.249 Y70.803 E3.33735
G1 X67.880 Y71.350 E3.34875
G1 X67.653 Y71.970 E3.36014
G1 X67.581 Y72.626 E3.37154
G1 X67.668 Y73.280 E3.38294
G1 X67.908 Y73.894 E3.39433
G1 X68.249 Y74.388 E3.40469
G1 X68.738 Y74.831 E3.41609
G1 X69.376 Y75.165 E3.42852
G1 X70.018 Y75.316 E3.43991
G1 X70.678 Y75.309 E3.45131
G1 X71.317 Y75.144 E3.46271
G1 X72.361 Y74.596 E3.48308
G1 X73.568 Y75.325 E3.50743
G1 X73.568 Y78.631 E3.56452
G1 X73.102 Y79.283 E3.57835
G1 X72.047 Y79.636 E3.59757
G1 X70.865 Y79.825 E3.61824
G1 X69.771 Y79.825 E3.63714
G1 X68.588 Y79.636 E3.65782
G1 X67.453 Y79.255 E3.67850
G1 X66.309 Y78.636 E3.70096
G1 X65.370 Y77.894 E3.72164
G1 X64.565 Y77.008 E3.74232
G1 X63.917 Y76.001 E3.76299
G1 X63.478 Y74.999 E3.78189
G1 X63.175 Y73.839 E3.80258
G1 X63.068 Y72.647 E3.82325
G1 X63.158 Y71.453 E3.84393
G1 X63.444 Y70.290 E3.86461
G1 X63.917 Y69.190 E3.88529
G1 X64.565 Y68.183 E3.90597
G1 X65.446 Y67.226 E3.92843
G1 X66.396 Y66.498 E3.94911
G1 X67.358 Y65.977 E3.96800
G1 X67.677 Y65.858 E3.97388
G1 X67.863 Y65.513 E3.98065
G1 X67.306 Y63.369 E4.01890
G1 X67.290 Y63.144 E4.02279
G1 X67.323 Y62.830 E4.02825
G1 X67.386 Y62.614 E4.03214
G1 X67.624 Y62.140 E4.04129
G1 X67.614 Y61.883 E4.04574
G1 X67.391 Y61.514 E4.05318
G1 X67.268 Y60.928 E4.06351
G1 X67.323 Y60.508 E4.07082
G1 X68.575 Y58.010 E4.11909
G1 X69.077 Y57.650 E4.12974
G1 X69.948 Y57.529 E4.14494
G1 X70.201 Y57.620 E4.14958
G1 X70.322 Y57.633 E4.15168
G1 X71.067 Y57.529 E4.16467
G1 X71.319 Y57.620 E4.16930
G1 X71.440 Y57.633 E4.17140
G1 X72.185 Y57.529 E4.18439
G1 X72.438 Y57.620 E4.18903
G1 X72.559 Y57.633 E4.19113
G1 X73.304 Y57.529 E4.20412
G1 X73.709 Y57.675 E4.21155
G1 X73.877 Y57.677 E4.21445
G1 X74.067 Y57.614 E4.21791
G1 X74.965 Y58.064 E4.23525
G1 X75.242 Y58.042 E4.24006
G1 X75.788 Y57.650 E4.25166
G1 X76.660 Y57.529 E4.26686
G1 X76.912 Y57.620 E4.27149
G1 X77.033 Y57.633 E4.27359
G1 X77.778 Y57.529 E4.28659
G1 X78.031 Y57.620 E4.29122
G1 X78.152 Y57.633 E4.29332
G1 X78.897 Y57.529 E4.30631
G1 X79.149 Y57.620 E4.31095
G1 X79.270 Y57.633 E4.31305
G1 X80.015 Y57.529 E4.32604
G1 X80.268 Y57.620 E4.33067
G1 X80.389 Y57.633 E4.33277
G1 X81.134 Y57.529 E4.34577
G1 X81.386 Y57.620 E4.35040
G1 X81.507 Y57.633 E4.35250
G1 X82.253 Y57.529 E4.36549
G1 X82.505 Y57.620 E4.37013
G1 X82.626 Y57.633 E4.37223
G1 X83.371 Y57.529 E4.38522
G1 X83.776 Y57.675 E4.39265
G1 X83.944 Y57.677 E4.39555
G1 X84.134 Y57.614 E4.39901
G1 X84.484 Y57.789 E4.40577
G1 X84.682 Y57.803 E4.40920
G1 X85.253 Y57.614 E4.41958
G1 X85.537 Y57.756 E4.42508
G1 X85.797 Y57.745 E4.42957
G1 X85.918 Y57.670 E4.43203
G1 X86.253 Y57.575 E4.43803
G1 X88.081 Y57.575 E4.46960
G1 X88.649 Y57.892 E4.48083
G1 X89.137 Y58.683 E4.49688
G1 X89.165 Y59.332 E4.50810
G1 X89.012 Y59.638 E4.51401
G1 X89.022 Y59.895 E4.51845
G1 X89.245 Y60.264 E4.52590
G1 X89.367 Y60.849 E4.53622
G1 X89.313 Y61.270 E4.54354
G1 X89.012 Y61.870 E4.55513
G1 X89.022 Y62.127 E4.55958
G1 X89.245 Y62.496 E4.56702
G1 X89.367 Y63.081 E4.57735
G1 X89.313 Y63.501 E4.58466
G1 X89.013 Y64.099 E4.59621
G1 X88.999 Y64.298 E4.59965
G1 X89.284 Y65.156 E4.61527
G1 X89.546 Y65.345 E4.62085
G1 X98.321 Y65.345 E4.77239
G1 X99.472 Y65.845 F7800.000
G1 X99.741 Y65.267 E4.78341 F1800.000
G1 X98.914 Y64.287 E4.80555
G1 X98.827 Y64.085 E4.80935
G1 X98.783 Y63.717 E4.81574
G1 X98.821 Y63.501 E4.81954
G1 X99.238 Y62.669 E4.83561
G1 X99.166 Y62.327 E4.84164
G1 X98.994 Y62.184 E4.84550
G1 X98.863 Y61.967 E4.84989
G1 X98.775 Y61.547 E4.85729
G1 X98.808 Y61.295 E4.86168
G1 X99.331 Y60.252 E4.88183
G1 X99.200 Y59.859 E4.88898
G1 X98.961 Y59.739 E4.89360
G1 X98.765 Y59.150 E4.90433
G1 X99.166 Y58.350 E4.91979
G1 X99.755 Y58.154 E4.93052
G1 X100.079 Y58.316 E4.93677
G1 X100.357 Y58.294 E4.94158
G1 X100.588 Y58.128 E4.94649
G1 X101.215 Y58.041 E4.95742
G1 X101.467 Y58.132 E4.96206
G1 X101.588 Y58.145 E4.96416
G1 X102.333 Y58.041 E4.97715
G1 X102.675 Y58.164 E4.98341
G1 X102.889 Y58.148 E4.98712
G1 X102.966 Y58.105 E4.98864
G1 X103.191 Y58.061 E4.99260
G1 X104.758 Y58.228 E5.01981
G1 X105.002 Y58.269 E5.02409
G1 X105.348 Y58.154 E5.03039
G1 X105.672 Y58.316 E5.03665
G1 X105.950 Y58.294 E5.04146
G1 X106.181 Y58.128 E5.04637
G1 X106.808 Y58.041 E5.05730
G1 X107.060 Y58.132 E5.06193
G1 X107.181 Y58.145 E5.06403
G1 X107.926 Y58.041 E5.07703
G1 X108.179 Y58.132 E5.08166
G1 X108.300 Y58.145 E5.08376
G1 X109.045 Y58.041 E5.09675
G1 X109.297 Y58.132 E5.10139
G1 X109.418 Y58.145 E5.10349
G1 X110.163 Y58.041 E5.11648
G1 X110.416 Y58.132 E5.12111
G1 X110.537 Y58.145 E5.12321
G1 X111.282 Y58.041 E5.13621
G1 X111.535 Y58.132 E5.14084
G1 X111.655 Y58.145 E5.14294
G1 X112.401 Y58.041 E5.15593
G1 X112.653 Y58.132 E5.16057
G1 X112.774 Y58.145 E5.16267
G1 X113.519 Y58.041 E5.17566
G1 X113.868 Y58.167 E5.18205
G1 X114.046 Y58.338 E5.18633
G1 X114.367 Y58.498 E5.19251
G1 X114.644 Y58.476 E5.19732
G1 X115.129 Y58.128 E5.20763
G1 X115.756 Y58.041 E5.21856
G1 X116.009 Y58.132 E5.22320
G1 X116.130 Y58.145 E5.22530
G1 X116.875 Y58.041 E5.23829
G1 X117.221 Y58.166 E5.24464
G1 X117.424 Y58.154 E5.24815
G1 X117.561 Y58.087 E5.25078
G1 X117.804 Y58.054 E5.25502
G1 X119.322 Y58.346 E5.28171
G1 X119.602 Y58.560 E5.28780
G1 X119.868 Y59.099 E5.29818
G1 X119.867 Y59.451 E5.30426
G1 X119.398 Y60.386 E5.32233
G1 X119.469 Y60.728 E5.32835
G1 X119.641 Y60.871 E5.33221
G1 X119.773 Y61.088 E5.33660
G1 X119.861 Y61.508 E5.34401
G1 X119.828 Y61.760 E5.34839
