; generated by Slic3r 0.9.9 on 2013-05-24 at 17:19:13

; layer_height = 0.3
; perimeters = 2
; top_solid_layers = 2
; bottom_solid_layers = 2
; fill_density = 0.3
; perimeter_speed = 90
; infill_speed = 90
; travel_speed = 130
; nozzle_diameter = 0.5
; filament_diameter = 2.89
; extrusion_multiplier = 1
; perimeters extrusion width = 0.70mm
; infill extrusion width = 0.70mm
; solid infill extrusion width = 0.70mm
; top infill extrusion width = 0.70mm
; first layer extrusion width = 0.45mm

G21 ; set units to millimeters
M107
M190 S110 ; wait for bed temperature to be reached
M104 S235 ; set temperature
G28 ; home all axes
M109 S235 ; wait for temperature to be reached
G90 ; use absolute coordinates
G92 E0
M82 ; use absolute distances for extrusion
G1 F1500.000 E-1.20000
G92 E0
G1 Z0.300 F7800.000
G1 X64.221 Y94.652
G1 F1500.000 E1.20000
G1 X67.461 Y92.592 F2700.000 E1.28090
G1 X67.981 Y92.292 E1.29355
G1 X68.801 Y91.932 E1.31242
G1 X69.381 Y91.752 E1.32522
G1 X69.961 Y91.622 E1.33774
G1 X70.561 Y91.542 E1.35049
G1 X71.161 Y91.522 E1.36314
G1 X123.321 Y91.522 E2.46220
G1 X123.921 Y91.542 E2.47485
G1 X124.521 Y91.622 E2.48760
G1 X124.811 Y91.682 E2.49384
G1 X125.101 Y91.752 E2.50013
G1 X125.681 Y91.932 E2.51293
G1 X126.231 Y92.162 E2.52549
G1 X126.771 Y92.442 E2.53830
G1 X130.021 Y94.492 E2.61927
G1 X130.481 Y94.812 E2.63108
G1 X131.121 Y95.352 E2.64872
G1 X131.501 Y95.752 E2.66035
G1 X131.861 Y96.182 E2.67216
G1 X132.321 Y96.882 E2.68981
G1 X132.691 Y97.632 E2.70743
G1 X132.891 Y98.152 E2.71917
G1 X132.971 Y98.422 E2.72511
G1 X133.151 Y99.232 E2.74259
G1 X133.241 Y100.062 E2.76018
G1 X133.241 Y102.612 E2.81391
G1 X133.161 Y103.422 E2.83106
G1 X133.051 Y103.962 E2.84267
G1 X132.901 Y104.482 E2.85408
G1 X132.611 Y105.242 E2.87122
G1 X132.491 Y105.482 E2.87687
G1 X132.221 Y105.962 E2.88848
G1 X131.761 Y106.632 E2.90560
G1 X131.401 Y107.042 E2.91710
G1 X131.021 Y107.422 E2.92842
G1 X130.611 Y107.782 E2.93992
G1 X130.171 Y108.092 E2.95126
G1 X129.701 Y108.382 E2.96290
G1 X129.221 Y108.632 E2.97430
G1 X128.461 Y108.922 E2.99144
G1 X127.941 Y109.072 E3.00284
G1 X127.401 Y109.182 E3.01446
G1 X126.861 Y109.242 E3.02590
G1 X126.591 Y109.262 E3.03161
G1 X67.891 Y109.262 E4.26847
G1 X67.081 Y109.182 E4.28562
G1 X66.281 Y109.002 E4.30290
G1 X65.761 Y108.832 E4.31442
G1 X65.261 Y108.632 E4.32577
G1 X64.781 Y108.382 E4.33717
G1 X64.311 Y108.092 E4.34881
G1 X63.871 Y107.782 E4.36015
G1 X63.461 Y107.422 E4.37165
G1 X63.081 Y107.042 E4.38297
G1 X62.721 Y106.632 E4.39447
G1 X62.411 Y106.192 E4.40581
G1 X62.121 Y105.722 E4.41745
G1 X61.871 Y105.242 E4.42885
G1 X61.671 Y104.742 E4.44020
G1 X61.501 Y104.222 E4.45173
G1 X61.371 Y103.692 E4.46322
G1 X61.321 Y103.422 E4.46901
G1 X61.241 Y102.612 E4.48616
G1 X61.241 Y100.062 E4.53989
G1 X61.331 Y99.232 E4.55748
G1 X61.441 Y98.682 E4.56930
G1 X61.591 Y98.152 E4.58091
G1 X61.791 Y97.632 E4.59265
G1 X62.161 Y96.882 E4.61027
G1 X62.621 Y96.182 E4.62792
G1 X62.981 Y95.752 E4.63973
G1 X63.361 Y95.352 E4.65136
G1 X63.781 Y94.982 E4.66315
G1 X64.165 Y94.692 E4.67329
G1 X64.481 Y95.032 F7800.000
G1 X67.701 Y92.982 F2700.000 E4.75372
G1 X68.191 Y92.702 E4.76561
G1 X68.961 Y92.372 E4.78326
G1 X69.501 Y92.202 E4.79519
G1 X70.041 Y92.082 E4.80685
G1 X70.601 Y92.002 E4.81876
G1 X71.161 Y91.982 E4.83057
G1 X123.321 Y91.982 E5.92963
G1 X123.881 Y92.002 E5.94144
G1 X124.161 Y92.032 E5.94737
G1 X124.711 Y92.132 E5.95915
G1 X125.521 Y92.372 E5.97695
G1 X126.291 Y92.702 E5.99460
G1 X126.781 Y92.982 E6.00649
G1 X130.001 Y95.032 E6.08692
G1 X130.431 Y95.362 E6.09834
G1 X130.841 Y95.722 E6.10984
G1 X131.031 Y95.912 E6.11550
G1 X131.381 Y96.322 E6.12686
G1 X131.701 Y96.762 E6.13833
G1 X132.111 Y97.462 E6.15542
G1 X132.421 Y98.212 E6.17252
G1 X132.581 Y98.732 E6.18398
G1 X132.641 Y99.002 E6.18981
G1 X132.731 Y99.532 E6.20114
G1 X132.781 Y100.072 E6.21256
G1 X132.781 Y102.612 E6.26608
G1 X132.731 Y103.142 E6.27730
G1 X132.581 Y103.932 E6.29425
G1 X132.431 Y104.442 E6.30545
G1 X132.241 Y104.942 E6.31672
G1 X131.871 Y105.652 E6.33359
G1 X131.581 Y106.092 E6.34469
G1 X131.251 Y106.522 E6.35611
G1 X130.891 Y106.912 E6.36730
G1 X130.501 Y107.272 E6.37848
G1 X130.071 Y107.602 E6.38990
G1 X129.631 Y107.892 E6.40100
G1 X128.921 Y108.262 E6.41787
G1 X128.421 Y108.452 E6.42914
G1 X127.911 Y108.602 E6.44035
G1 X127.381 Y108.712 E6.45175
G1 X126.851 Y108.782 E6.46302
G1 X126.591 Y108.802 E6.46851
G1 X67.891 Y108.802 E7.70537
G1 X67.361 Y108.752 E7.71659
G1 X66.571 Y108.602 E7.73353
G1 X66.061 Y108.452 E7.74473
G1 X65.561 Y108.262 E7.75600
G1 X64.851 Y107.892 E7.77287
G1 X64.631 Y107.752 E7.77837
G1 X64.191 Y107.442 E7.78971
G1 X63.781 Y107.092 E7.80107
G1 X63.231 Y106.522 E7.81776
G1 X62.901 Y106.092 E7.82918
G1 X62.611 Y105.652 E7.84028
G1 X62.241 Y104.942 E7.85715
G1 X62.141 Y104.692 E7.86282
G1 X61.971 Y104.182 E7.87415
G1 X61.841 Y103.672 E7.88524
G1 X61.751 Y103.142 E7.89657
G1 X61.701 Y102.612 E7.90779
G1 X61.701 Y100.072 E7.96131
G1 X61.791 Y99.262 E7.97848
G1 X61.901 Y98.732 E7.98988
G1 X62.151 Y97.962 E8.00694
G1 X62.371 Y97.462 E8.01845
G1 X62.781 Y96.762 E8.03555
G1 X63.101 Y96.322 E8.04701
G1 X63.451 Y95.912 E8.05837
G1 X63.841 Y95.542 E8.06970
G1 X64.425 Y95.072 E8.08548
G1 X66.165 Y95.511 F7800.000
G1 X67.265 Y95.511 F2700.000 E8.10866
G1 X69.165 Y93.611 E8.16528
G1 X125.333 Y93.611 E9.34879
G1 X127.233 Y95.511 E9.40541
G1 X128.333 Y95.511 E9.42859
G1 X131.167 Y98.345 E9.51303
G1 X131.167 Y104.353 E9.63962
G1 X128.333 Y107.187 E9.72407
G1 X66.165 Y107.187 E11.03400
G1 X63.331 Y104.353 E11.11845
G1 X63.331 Y98.345 E11.24504
G1 X66.116 Y95.560 E11.32802
G1 X66.355 Y95.972 F7800.000
G1 X67.455 Y95.972 F2700.000 E11.35120
G1 X69.355 Y94.072 E11.40782
G1 X125.142 Y94.072 E12.58329
G1 X127.042 Y95.972 E12.63991
G1 X128.142 Y95.972 E12.66309
G1 X130.706 Y98.536 E12.73949
G1 X130.706 Y104.162 E12.85803
G1 X128.142 Y106.726 E12.93444
G1 X66.355 Y106.726 E14.23633
G1 X63.792 Y104.162 E14.31274
G1 X63.792 Y98.536 E14.43128
G1 X66.307 Y96.021 E14.50623
G1 X66.546 Y96.433 F7800.000
G1 X67.646 Y96.433 F2700.000 E14.52940
G1 X69.546 Y94.533 E14.58602
G1 X124.951 Y94.533 E15.75345
G1 X126.851 Y96.433 E15.81007
G1 X127.951 Y96.433 E15.83325
G1 X130.245 Y98.727 E15.90161
G1 X130.245 Y103.971 E16.01211
G1 X127.951 Y106.265 E16.08047
G1 X66.546 Y106.265 E17.37432
G1 X64.252 Y103.971 E17.44268
G1 X64.252 Y98.727 E17.55318
G1 X66.497 Y96.481 E17.62009
G1 X66.737 Y96.893 F7800.000
G1 X67.837 Y96.893 F2700.000 E17.64327
G1 X69.737 Y94.993 E17.69988
G1 X124.760 Y94.993 E18.85927
G1 X126.660 Y96.893 E18.91589
G1 X127.760 Y96.893 E18.93907
G1 X129.785 Y98.918 E18.99938
G1 X129.785 Y103.780 E19.10184
G1 X127.760 Y105.804 E19.16216
G1 X66.737 Y105.804 E20.44797
G1 X64.713 Y103.780 E20.50829
G1 X64.713 Y98.918 E20.61075
G1 X66.688 Y96.942 E20.66961
G1 X66.928 Y97.354 F7800.000
G1 X68.174 Y97.354 F2700.000 E20.69586
G1 X68.174 Y97.208 E20.69893
G1 X69.928 Y95.454 E20.75121
G1 X124.570 Y95.454 E21.90255
G1 X126.324 Y97.208 E21.95483
G1 X126.324 Y97.354 E21.95790
G1 X127.570 Y97.354 E21.98414
G1 X129.324 Y99.108 E22.03642
G1 X129.324 Y103.589 E22.13084
G1 X127.570 Y105.344 E22.18311
G1 X66.928 Y105.344 E23.46088
G1 X65.174 Y103.589 E23.51316
G1 X65.174 Y99.108 E23.60757
G1 X66.879 Y97.403 E23.65839
G1 X67.119 Y97.815 F7800.000
G1 X68.634 Y97.815 F2700.000 E23.69033
G1 X68.634 Y97.399 E23.69909
G1 X70.119 Y95.915 E23.74332
G1 X124.379 Y95.915 E24.88662
G1 X125.863 Y97.399 E24.93085
G1 X125.863 Y97.815 E24.93961
G1 X127.379 Y97.815 E24.97155
G1 X128.863 Y99.299 E25.01578
G1 X128.863 Y103.398 E25.10215
G1 X127.379 Y104.883 E25.14639
G1 X67.119 Y104.883 E26.41611
G1 X65.634 Y103.398 E26.46035
G1 X65.634 Y99.299 E26.54672
G1 X67.070 Y97.864 E26.58950
G1 X67.310 Y98.276 F7800.000
G1 X69.095 Y98.276 F2700.000 E26.62712
G1 X69.095 Y97.590 E26.64156
G1 X70.310 Y96.376 E26.67776
G1 X124.188 Y96.376 E27.81302
G1 X125.402 Y97.590 E27.84921
G1 X125.402 Y98.276 E27.86365
G1 X127.188 Y98.276 E27.90127
G1 X128.402 Y99.490 E27.93746
G1 X128.402 Y103.208 E28.01579
G1 X127.188 Y104.422 E28.05199
G1 X67.310 Y104.422 E29.31367
G1 X66.095 Y103.208 E29.34986
G1 X66.095 Y99.490 E29.42819
G1 X67.261 Y98.324 E29.46293
G1 X67.501 Y98.736 F7800.000
G1 X69.556 Y98.736 F2700.000 E29.50624
G1 X69.556 Y97.781 E29.52637
G1 X70.501 Y96.836 E29.55452
G1 X123.997 Y96.836 E30.68173
G1 X124.942 Y97.781 E30.70988
G1 X124.942 Y98.736 E30.73001
G1 X126.997 Y98.736 E30.77332
G1 X127.942 Y99.681 E30.80147
G1 X127.942 Y103.017 E30.87176
G1 X126.997 Y103.961 E30.89991
G1 X67.501 Y103.961 E32.15355
G1 X66.556 Y103.017 E32.18170
G1 X66.556 Y99.681 E32.25199
G1 X67.452 Y98.785 E32.27868
G1 X67.691 Y99.197 F7800.000
G1 X70.017 Y99.197 F2700.000 E32.32768
G1 X70.017 Y97.972 E32.35349
G1 X70.691 Y97.297 E32.37360
G1 X123.806 Y97.297 E33.49278
G1 X124.481 Y97.972 E33.51288
G1 X124.481 Y99.197 E33.53870
G1 X126.806 Y99.197 E33.58769
G1 X127.481 Y99.872 E33.60780
G1 X127.481 Y102.826 E33.67005
G1 X126.806 Y103.501 E33.69015
G1 X67.691 Y103.501 E34.93575
G1 X67.017 Y102.826 E34.95586
G1 X67.017 Y99.872 E35.01811
G1 X67.642 Y99.246 E35.03676
G1 X67.882 Y99.658 F7800.000
G1 X70.477 Y99.658 F2700.000 E35.09144
G1 X70.477 Y98.163 E35.12294
G1 X70.882 Y97.758 E35.13501
G1 X123.615 Y97.758 E36.24614
G1 X124.020 Y98.163 E36.25820
G1 X124.020 Y99.658 E36.28971
G1 X126.615 Y99.658 E36.34439
G1 X127.020 Y100.063 E36.35645
G1 X127.020 Y102.635 E36.41066
G1 X126.615 Y103.040 E36.42272
G1 X67.882 Y103.040 E37.66028
G1 X67.477 Y102.635 E37.67235
G1 X67.477 Y100.063 E37.72655
G1 X67.833 Y99.707 E37.73716
G1 X68.073 Y100.118 F7800.000
G1 X126.425 Y100.118 F2700.000 E38.96667
G1 X126.559 Y100.253 E38.97069
G1 X126.559 Y102.444 E39.01686
G1 X126.425 Y102.579 E39.02088
G1 X68.073 Y102.579 E40.25039
G1 X67.938 Y102.444 E40.25442
G1 X67.938 Y100.253 E40.30058
G1 X68.024 Y100.167 E40.30314
G1 F1500.000 E39.10314
G92 E0
G1 X70.938 Y99.944 F7800.000
G1 F1500.000 E1.20000
G1 X70.938 Y98.353 F2700.000 E1.23352
G1 X71.073 Y98.218 E1.23754
G1 X123.425 Y98.218 E2.34063
G1 X123.559 Y98.353 E2.34465
G1 X123.559 Y99.944 E2.37817
G1 X123.425 Y100.079 E2.38219
G1 X71.073 Y100.079 E3.48529
G1 X70.987 Y99.993 E3.48785
G1 X71.399 Y99.618 F7800.000
G1 X71.399 Y98.679 F2700.000 E3.50764
G1 X123.099 Y98.679 E4.59700
G1 X123.099 Y99.618 E4.61679
G1 X71.468 Y99.618 E5.70470
G1 F1500.000 E4.50470
G92 E0
G1 X68.399 Y100.579 F7800.000
G1 F1500.000 E1.20000
G1 X126.099 Y100.579 F2700.000 E2.41579
G1 X126.099 Y102.118 E2.44822
G1 X68.399 Y102.118 E3.66401
G1 X68.399 Y100.648 E3.69498
G1 X68.798 Y100.810 F7800.000
G1 X68.860 Y101.040
G1 X125.638 Y101.040 F2700.000 E4.89136
G1 X125.638 Y101.658 E4.90437
G1 X68.860 Y101.658 E6.10074
G1 X68.860 Y101.109 E6.11231
G1 F1500.000 E4.91231
G92 E0
G1 X71.854 Y99.163 F7800.000
G1 F1500.000 E1.20000
G1 X72.486 Y99.134 F1200.000 E1.21349
G1 X72.514 Y99.163 E1.21435
G1 X73.145 Y99.134 E1.22784
G1 X73.174 Y99.163 E1.22871
G1 X73.805 Y99.134 E1.24219
G1 X73.834 Y99.163 E1.24306
G1 X74.465 Y99.134 E1.25655
G1 X74.494 Y99.163 E1.25741
G1 X75.125 Y99.134 E1.27090
G1 X75.154 Y99.163 E1.27177
G1 X75.785 Y99.134 E1.28525
G1 X75.814 Y99.163 E1.28612
G1 X76.445 Y99.134 E1.29961
G1 X76.474 Y99.163 E1.30047
G1 X77.105 Y99.134 E1.31396
G1 X77.134 Y99.163 E1.31483
G1 X77.765 Y99.134 E1.32831
G1 X77.794 Y99.163 E1.32918
G1 X78.425 Y99.134 E1.34267
G1 X78.454 Y99.163 E1.34353
G1 X79.085 Y99.134 E1.35702
G1 X79.114 Y99.163 E1.35789
G1 X79.745 Y99.134 E1.37137
G1 X79.774 Y99.163 E1.37224
G1 X80.405 Y99.134 E1.38573
G1 X80.434 Y99.163 E1.38659
G1 X81.065 Y99.134 E1.40008
G1 X81.094 Y99.163 E1.40095
G1 X81.725 Y99.134 E1.41443
G1 X81.754 Y99.163 E1.41530
G1 X82.385 Y99.134 E1.42879
G1 X82.414 Y99.163 E1.42966
G1 X83.045 Y99.134 E1.44314
G1 X83.074 Y99.163 E1.44401
G1 X83.705 Y99.134 E1.45749
G1 X83.734 Y99.163 E1.45836
G1 X84.365 Y99.134 E1.47185
G1 X84.394 Y99.163 E1.47272
G1 X85.025 Y99.134 E1.48620
G1 X85.054 Y99.163 E1.48707
G1 X85.685 Y99.134 E1.50056
G1 X85.714 Y99.163 E1.50142
G1 X86.345 Y99.134 E1.51491
G1 X86.374 Y99.163 E1.51578
G1 X87.005 Y99.134 E1.52926
G1 X87.034 Y99.163 E1.53013
G1 X87.665 Y99.134 E1.54362
G1 X87.694 Y99.163 E1.54448
G1 X88.325 Y99.134 E1.55797
G1 X88.354 Y99.163 E1.55884
G1 X88.985 Y99.134 E1.57232
G1 X89.014 Y99.163 E1.57319
G1 X89.645 Y99.134 E1.58668
G1 X89.673 Y99.163 E1.58754
G1 X90.305 Y99.134 E1.60103
G1 X90.333 Y99.163 E1.60190
G1 X90.965 Y99.134 E1.61538
G1 X90.993 Y99.163 E1.61625
G1 X91.625 Y99.134 E1.62974
G1 X91.653 Y99.163 E1.63060
G1 X92.285 Y99.134 E1.64409
G1 X92.313 Y99.163 E1.64496
G1 X92.945 Y99.134 E1.65844
G1 X92.973 Y99.163 E1.65931
G1 X93.605 Y99.134 E1.67280
G1 X93.633 Y99.163 E1.67366
G1 X94.265 Y99.134 E1.68715
G1 X94.293 Y99.163 E1.68802
G1 X94.924 Y99.134 E1.70150
G1 X94.953 Y99.163 E1.70237
G1 X95.584 Y99.134 E1.71586
G1 X95.613 Y99.163 E1.71672
G1 X96.244 Y99.134 E1.73021
G1 X96.273 Y99.163 E1.73108
G1 X96.904 Y99.134 E1.74456
G1 X96.933 Y99.163 E1.74543
G1 X97.564 Y99.134 E1.75892
G1 X97.593 Y99.163 E1.75978
G1 X98.224 Y99.134 E1.77327
G1 X98.253 Y99.163 E1.77414
G1 X98.884 Y99.134 E1.78762
G1 X98.913 Y99.163 E1.78849
G1 X99.544 Y99.134 E1.80198
G1 X99.573 Y99.163 E1.80285
G1 X100.204 Y99.134 E1.81633
G1 X100.233 Y99.163 E1.81720
G1 X100.864 Y99.134 E1.83068
G1 X100.893 Y99.163 E1.83155
G1 X101.524 Y99.134 E1.84504
G1 X101.553 Y99.163 E1.84591
G1 X102.184 Y99.134 E1.85939
G1 X102.213 Y99.163 E1.86026
G1 X102.844 Y99.134 E1.87375
G1 X102.873 Y99.163 E1.87461
G1 X103.504 Y99.134 E1.88810
G1 X103.533 Y99.163 E1.88897
G1 X104.164 Y99.134 E1.90245
G1 X104.193 Y99.163 E1.90332
G1 X104.824 Y99.134 E1.91681
G1 X104.853 Y99.163 E1.91767
G1 X105.484 Y99.134 E1.93116
G1 X105.513 Y99.163 E1.93203
G1 X106.144 Y99.134 E1.94551
G1 X106.173 Y99.163 E1.94638
G1 X106.804 Y99.134 E1.95987
G1 X106.833 Y99.163 E1.96073
G1 X107.464 Y99.134 E1.97422
G1 X107.493 Y99.163 E1.97509
G1 X108.124 Y99.134 E1.98857
G1 X108.153 Y99.163 E1.98944
G1 X108.784 Y99.134 E2.00293
G1 X108.813 Y99.163 E2.00379
G1 X109.444 Y99.134 E2.01728
G1 X109.473 Y99.163 E2.01815
G1 X110.104 Y99.134 E2.03163
G1 X110.133 Y99.163 E2.03250
G1 X110.764 Y99.134 E2.04599
G1 X110.793 Y99.163 E2.04685
G1 X111.424 Y99.134 E2.06034
G1 X111.452 Y99.163 E2.06121
G1 X112.084 Y99.134 E2.07469
G1 X112.112 Y99.163 E2.07556
G1 X112.744 Y99.134 E2.08905
G1 X112.772 Y99.163 E2.08991
G1 X113.404 Y99.134 E2.10340
G1 X113.432 Y99.163 E2.10427
G1 X114.064 Y99.134 E2.11775
G1 X114.092 Y99.163 E2.11862
G1 X114.724 Y99.134 E2.13211
G1 X114.752 Y99.163 E2.13298
G1 X115.384 Y99.134 E2.14646
G1 X115.412 Y99.163 E2.14733
G1 X116.044 Y99.134 E2.16081
G1 X116.072 Y99.163 E2.16168
G1 X116.704 Y99.134 E2.17517
G1 X116.732 Y99.163 E2.17604
G1 X117.363 Y99.134 E2.18952
G1 X117.392 Y99.163 E2.19039
G1 X118.023 Y99.134 E2.20387
G1 X118.052 Y99.163 E2.20474
G1 X118.683 Y99.134 E2.21823
G1 X118.712 Y99.163 E2.21910
G1 X119.343 Y99.134 E2.23258
G1 X119.372 Y99.163 E2.23345
G1 X120.003 Y99.134 E2.24694
G1 X120.032 Y99.163 E2.24780
G1 X120.663 Y99.134 E2.26129
G1 X120.692 Y99.163 E2.26216
G1 X121.323 Y99.134 E2.27564
G1 X121.352 Y99.163 E2.27651
G1 X121.983 Y99.134 E2.29000
G1 X122.012 Y99.163 E2.29086
G1 X122.643 Y99.135 E2.30435
G1 F1500.000 E1.10435
G92 E0
G1 Z0.600 F7800.000
G1 X126.757 Y100.676
G1 F1500.000 E1.20000
G1 X126.757 Y102.022 F3054.338 E1.24027
G1 X67.741 Y102.022 E3.00677
G1 X67.741 Y100.676 E3.04704
G1 X126.658 Y100.676 E4.81060
G1 F1500.000 E3.61060
G92 E0
G1 X123.757 Y99.522 F7800.000
G1 F1500.000 E1.20000
G1 X70.741 Y99.522 F3054.338 E2.78690
G1 X70.741 Y98.776 E2.80921
