; generated by Slic3r 0.9.9 on 2013-05-25 at 01:17:15

; layer_height = 0.3
; perimeters = 2
; top_solid_layers = 2
; bottom_solid_layers = 2
; fill_density = 0.3
; perimeter_speed = 90
; infill_speed = 90
; travel_speed = 130
; nozzle_diameter = 0.5
; filament_diameter = 2.95
; extrusion_multiplier = 0.9
; perimeters extrusion width = 0.70mm
; infill extrusion width = 0.70mm
; solid infill extrusion width = 0.70mm
; top infill extrusion width = 0.70mm
; first layer extrusion width = 0.45mm

G21 ; set units to millimeters
M107
M190 S110 ; wait for bed temperature to be reached
M104 S235 ; set temperature
G28 ; home all axes
M109 S235 ; wait for temperature to be reached
G90 ; use absolute coordinates
G92 E0
M82 ; use absolute distances for extrusion
G1 F1500.000 E-1.40000
G92 E0
G1 Z0.300 F7800.000
G1 X64.581 Y94.642
G1 F1500.000 E1.40000
G1 X65.051 Y94.362 F2700.000 E1.40996
G1 X69.901 Y91.962 E1.50844
G1 X70.441 Y91.752 E1.51899
G1 X71.001 Y91.582 E1.52964
G1 X71.561 Y91.462 E1.54006
G1 X72.421 Y91.372 E1.55580
G1 X125.161 Y91.372 E2.51568
G1 X125.731 Y91.422 E2.52610
G1 X126.011 Y91.462 E2.53124
G1 X126.571 Y91.582 E2.54167
G1 X127.121 Y91.742 E2.55209
G1 X127.391 Y91.842 E2.55733
G1 X128.161 Y92.202 E2.57280
G1 X128.411 Y92.342 E2.57802
G1 X128.891 Y92.662 E2.58852
G1 X129.561 Y93.202 E2.60418
G1 X132.111 Y95.752 E2.66981
G1 X132.481 Y96.192 E2.68028
G1 X132.811 Y96.652 E2.69058
G1 X132.971 Y96.902 E2.69598
G1 X133.241 Y97.402 E2.70632
G1 X133.471 Y97.922 E2.71667
G1 X133.571 Y98.192 E2.72191
G1 X133.731 Y98.742 E2.73234
G1 X133.851 Y99.302 E2.74276
G1 X133.941 Y100.152 E2.75832
G1 X133.941 Y102.612 E2.80309
G1 X133.861 Y103.422 E2.81790
G1 X133.751 Y103.962 E2.82793
G1 X133.601 Y104.482 E2.83778
G1 X133.311 Y105.242 E2.85259
G1 X133.191 Y105.482 E2.85747
G1 X132.921 Y105.962 E2.86750
G1 X132.461 Y106.632 E2.88229
G1 X132.101 Y107.042 E2.89222
G1 X131.721 Y107.422 E2.90200
G1 X131.311 Y107.782 E2.91193
G1 X130.871 Y108.092 E2.92173
G1 X130.401 Y108.382 E2.93178
G1 X129.921 Y108.632 E2.94163
G1 X129.161 Y108.922 E2.95643
G1 X128.641 Y109.072 E2.96628
G1 X128.101 Y109.182 E2.97631
G1 X127.561 Y109.242 E2.98620
G1 X127.291 Y109.262 E2.99113
G1 X68.091 Y109.262 E4.06858
G1 X67.281 Y109.182 E4.08339
G1 X66.481 Y109.002 E4.09832
G1 X65.961 Y108.832 E4.10828
G1 X65.461 Y108.632 E4.11808
G1 X64.981 Y108.382 E4.12793
G1 X64.511 Y108.092 E4.13798
G1 X64.071 Y107.782 E4.14777
G1 X63.661 Y107.422 E4.15770
G1 X63.281 Y107.042 E4.16748
G1 X62.921 Y106.632 E4.17742
G1 X62.611 Y106.192 E4.18721
G1 X62.321 Y105.722 E4.19726
G1 X62.071 Y105.242 E4.20711
G1 X61.871 Y104.742 E4.21691
G1 X61.701 Y104.222 E4.22687
G1 X61.571 Y103.692 E4.23680
G1 X61.521 Y103.422 E4.24180
G1 X61.441 Y102.612 E4.25661
G1 X61.441 Y100.172 E4.30102
G1 X61.491 Y99.622 E4.31107
G1 X61.571 Y99.072 E4.32119
G1 X61.781 Y98.282 E4.33607
G1 X61.981 Y97.762 E4.34621
G1 X62.211 Y97.272 E4.35606
G1 X62.481 Y96.792 E4.36608
G1 X62.791 Y96.332 E4.37618
G1 X63.131 Y95.902 E4.38616
G1 X63.511 Y95.502 E4.39620
G1 X63.921 Y95.132 E4.40625
G1 X64.524 Y94.681 E4.41995
G1 X64.811 Y95.042 F7800.000
G1 X65.261 Y94.772 F2700.000 E4.42950
G1 X70.121 Y92.372 E4.52815
G1 X70.671 Y92.162 E4.53887
G1 X71.241 Y92.002 E4.54964
G1 X71.821 Y91.892 E4.56039
G1 X72.411 Y91.842 E4.57116
G1 X124.871 Y91.832 E5.52595
G1 X125.431 Y91.852 E5.53615
G1 X125.711 Y91.882 E5.54127
G1 X126.271 Y91.982 E5.55162
G1 X126.541 Y92.052 E5.55670
G1 X127.341 Y92.322 E5.57207
G1 X127.601 Y92.432 E5.57721
G1 X128.101 Y92.692 E5.58746
G1 X128.801 Y93.162 E5.60281
G1 X129.441 Y93.722 E5.61829
G1 X131.591 Y95.872 E5.67363
G1 X131.971 Y96.292 E5.68393
G1 X132.311 Y96.732 E5.69405
G1 X132.621 Y97.212 E5.70445
G1 X132.881 Y97.712 E5.71471
G1 X132.991 Y97.972 E5.71985
G1 X133.261 Y98.772 E5.73522
G1 X133.331 Y99.042 E5.74029
G1 X133.431 Y99.602 E5.75065
G1 X133.461 Y99.882 E5.75577
G1 X133.481 Y100.442 E5.76597
G1 X133.481 Y102.612 E5.80546
G1 X133.431 Y103.142 E5.81515
G1 X133.281 Y103.932 E5.82979
G1 X133.131 Y104.442 E5.83946
G1 X132.941 Y104.942 E5.84920
G1 X132.571 Y105.652 E5.86377
G1 X132.281 Y106.092 E5.87336
G1 X131.951 Y106.522 E5.88323
G1 X131.591 Y106.912 E5.89289
G1 X131.201 Y107.272 E5.90255
G1 X130.771 Y107.602 E5.91241
G1 X130.331 Y107.892 E5.92200
G1 X129.621 Y108.262 E5.93657
G1 X129.121 Y108.452 E5.94631
G1 X128.611 Y108.602 E5.95598
G1 X128.081 Y108.712 E5.96584
G1 X127.551 Y108.782 E5.97556
G1 X127.291 Y108.802 E5.98031
G1 X68.091 Y108.802 E7.05776
G1 X67.561 Y108.752 E7.06745
G1 X66.771 Y108.602 E7.08209
G1 X66.261 Y108.452 E7.09176
G1 X65.761 Y108.262 E7.10150
G1 X65.051 Y107.892 E7.11607
G1 X64.831 Y107.752 E7.12082
G1 X64.391 Y107.442 E7.13061
G1 X63.981 Y107.092 E7.14042
G1 X63.431 Y106.522 E7.15484
G1 X63.101 Y106.092 E7.16470
G1 X62.811 Y105.652 E7.17429
G1 X62.441 Y104.942 E7.18887
G1 X62.341 Y104.692 E7.19377
G1 X62.171 Y104.182 E7.20355
G1 X62.041 Y103.672 E7.21313
G1 X61.951 Y103.142 E7.22291
G1 X61.901 Y102.612 E7.23260
G1 X61.901 Y100.172 E7.27701
G1 X61.991 Y99.382 E7.29148
G1 X62.171 Y98.602 E7.30605
G1 X62.341 Y98.102 E7.31566
G1 X62.551 Y97.612 E7.32537
G1 X62.801 Y97.142 E7.33506
G1 X63.251 Y96.482 E7.34959
G1 X63.591 Y96.082 E7.35915
G1 X63.971 Y95.702 E7.36893
G1 X64.371 Y95.362 E7.37848
G1 X64.755 Y95.083 E7.38713
G1 X66.366 Y95.610 F7800.000
G1 X68.566 Y95.610 F2700.000 E7.42717
G1 X70.716 Y93.460 E7.48251
G1 X126.884 Y93.460 E8.50478
G1 X131.868 Y98.444 E8.63306
G1 X131.868 Y104.352 E8.74058
G1 X129.034 Y107.186 E8.81352
G1 X66.366 Y107.186 E9.95410
G1 X63.532 Y104.352 E10.02704
G1 X63.532 Y98.444 E10.13456
G1 X66.317 Y95.659 E10.20624
G1 X66.557 Y96.071 F7800.000
G1 X68.757 Y96.071 F2700.000 E10.24628
G1 X70.907 Y93.921 E10.30162
G1 X126.693 Y93.921 E11.31695
G1 X131.407 Y98.635 E11.43828
G1 X131.407 Y104.161 E11.53885
G1 X128.843 Y106.725 E11.60485
G1 X66.557 Y106.725 E12.73848
G1 X63.993 Y104.161 E12.80447
G1 X63.993 Y98.635 E12.90504
G1 X66.508 Y96.120 E12.96978
G1 X66.747 Y96.532 F7800.000
G1 X68.947 Y96.532 F2700.000 E13.00982
G1 X71.097 Y94.382 E13.06516
G1 X126.502 Y94.382 E14.07354
G1 X130.946 Y98.826 E14.18793
G1 X130.946 Y103.970 E14.28155
G1 X128.652 Y106.264 E14.34060
G1 X66.747 Y106.264 E15.46728
G1 X64.453 Y103.970 E15.52633
G1 X64.453 Y98.826 E15.61996
G1 X66.699 Y96.581 E15.67775
G1 X66.938 Y96.993 F7800.000
G1 X69.264 Y96.993 F2700.000 E15.72008
G1 X69.264 Y96.867 E15.72237
G1 X71.288 Y94.843 E15.77447
G1 X126.312 Y94.843 E16.77590
G1 X128.336 Y96.867 E16.82800
G1 X128.336 Y96.993 E16.83029
G1 X128.462 Y96.993 E16.83258
G1 X130.486 Y99.017 E16.88468
G1 X130.486 Y103.779 E16.97136
G1 X128.462 Y105.804 E17.02346
G1 X66.938 Y105.804 E18.14320
G1 X64.914 Y103.779 E18.19530
G1 X64.914 Y99.017 E18.28198
G1 X66.889 Y97.042 E18.33282
G1 X67.129 Y97.453 F7800.000
G1 X69.725 Y97.453 F2700.000 E18.38006
G1 X69.725 Y97.058 E18.38727
G1 X71.479 Y95.303 E18.43242
G1 X126.121 Y95.303 E19.42691
G1 X127.875 Y97.058 E19.47206
G1 X127.875 Y97.453 E19.47926
G1 X128.271 Y97.453 E19.48647
G1 X130.025 Y99.208 E19.53162
G1 X130.025 Y103.589 E19.61135
G1 X128.271 Y105.343 E19.65651
G1 X67.129 Y105.343 E20.76930
G1 X65.375 Y103.589 E20.81445
G1 X65.375 Y99.208 E20.89418
G1 X67.080 Y97.502 E20.93808
G1 X67.320 Y97.914 F7800.000
G1 X70.186 Y97.914 F2700.000 E20.99023
G1 X70.186 Y97.249 E21.00235
G1 X71.670 Y95.764 E21.04055
G1 X125.930 Y95.764 E22.02810
G1 X127.414 Y97.249 E22.06630
G1 X127.414 Y97.914 E22.07842
G1 X128.080 Y97.914 E22.09053
G1 X129.564 Y99.399 E22.12874
G1 X129.564 Y103.398 E22.20152
G1 X128.080 Y104.882 E22.23973
G1 X67.320 Y104.882 E23.34557
G1 X65.836 Y103.398 E23.38378
G1 X65.836 Y99.399 E23.45657
G1 X67.271 Y97.963 E23.49352
G1 X67.511 Y98.375 F7800.000
G1 X70.646 Y98.375 F2700.000 E23.55058
G1 X70.646 Y97.439 E23.56761
G1 X71.861 Y96.225 E23.59887
G1 X125.739 Y96.225 E24.57946
G1 X126.954 Y97.439 E24.61072
G1 X126.954 Y98.375 E24.62775
G1 X127.889 Y98.375 E24.64478
G1 X129.104 Y99.589 E24.67604
G1 X129.104 Y103.207 E24.74188
G1 X127.889 Y104.421 E24.77314
G1 X67.511 Y104.421 E25.87203
G1 X66.296 Y103.207 E25.90329
G1 X66.296 Y99.589 E25.96913
G1 X67.462 Y98.424 E25.99914
G1 X67.702 Y98.836 F7800.000
G1 X71.107 Y98.836 F2700.000 E26.06111
G1 X71.107 Y97.630 E26.08305
G1 X72.052 Y96.686 E26.10737
G1 X125.548 Y96.686 E27.08101
G1 X126.493 Y97.630 E27.10533
G1 X126.493 Y98.836 E27.12727
G1 X127.698 Y98.836 E27.14920
G1 X128.643 Y99.780 E27.17352
G1 X128.643 Y103.016 E27.23241
G1 X127.698 Y103.961 E27.25673
G1 X67.702 Y103.961 E28.34867
G1 X66.757 Y103.016 E28.37299
G1 X66.757 Y99.780 E28.43188
G1 X67.653 Y98.884 E28.45494
G1 X67.893 Y99.296 F7800.000
G1 X71.568 Y99.296 F2700.000 E28.52183
G1 X71.568 Y97.821 E28.54868
G1 X72.243 Y97.146 E28.56604
G1 X125.357 Y97.146 E29.53275
G1 X126.032 Y97.821 E29.55011
G1 X126.032 Y99.296 E29.57696
G1 X127.507 Y99.296 E29.60381
G1 X128.182 Y99.971 E29.62118
G1 X128.182 Y102.825 E29.67313
G1 X127.507 Y103.500 E29.69049
G1 X67.893 Y103.500 E30.77550
G1 X67.218 Y102.825 E30.79286
G1 X67.218 Y99.971 E30.84481
G1 X67.844 Y99.345 E30.86092
G1 X68.083 Y99.757 F7800.000
G1 X72.029 Y99.757 F2700.000 E30.93272
G1 X72.029 Y98.012 E30.96448
G1 X72.433 Y97.607 E30.97490
G1 X125.167 Y97.607 E31.93466
G1 X125.571 Y98.012 E31.94508
G1 X125.571 Y99.757 E31.97684
G1 X127.317 Y99.757 E32.00860
G1 X127.721 Y100.162 E32.01902
G1 X127.721 Y102.634 E32.06402
G1 X127.317 Y103.039 E32.07444
G1 X68.083 Y103.039 E33.15250
G1 X67.679 Y102.634 E33.16292
G1 X67.679 Y100.162 E33.20792
G1 X68.035 Y99.806 E33.21708
G1 X68.274 Y100.218 F7800.000
G1 X127.126 Y100.218 F2700.000 E34.28819
G1 X127.261 Y100.353 E34.29167
G1 X127.261 Y102.444 E34.32972
G1 X127.126 Y102.579 E34.33319
G1 X68.274 Y102.579 E35.40430
G1 X68.139 Y102.444 E35.40778
G1 X68.139 Y100.353 E35.44583
G1 X68.225 Y100.267 E35.44804
G1 F1500.000 E34.04804
G92 E0
G1 X72.489 Y99.794 F7800.000
G1 F1500.000 E1.40000
G1 X72.489 Y98.203 F2700.000 E1.42895
G1 X72.624 Y98.068 E1.43243
G1 X124.976 Y98.068 E2.38523
G1 X125.111 Y98.203 E2.38871
G1 X125.111 Y99.794 E2.41766
G1 X124.976 Y99.929 E2.42114
G1 X72.624 Y99.929 E3.37394
G1 X72.538 Y99.842 E3.37616
G1 X72.950 Y99.468 F7800.000
G1 X72.950 Y98.529 F2700.000 E3.39325
G1 X124.650 Y98.529 E4.33420
G1 X124.650 Y99.468 E4.35130
G1 X73.019 Y99.468 E5.29099
G1 F1500.000 E3.89099
G92 E0
G1 X68.600 Y100.679 F7800.000
G1 F1500.000 E1.40000
G1 X126.800 Y100.679 F2700.000 E2.45925
G1 X126.800 Y102.118 E2.48545
G1 X68.600 Y102.118 E3.54470
G1 X68.600 Y100.748 E3.56963
G1 X68.999 Y100.909 F7800.000
G1 X69.061 Y101.139
G1 X126.339 Y101.139 F2700.000 E4.61211
G1 X126.339 Y101.657 E4.62154
G1 X69.061 Y101.657 E5.66402
G1 X69.061 Y101.208 E5.67218
G1 F1500.000 E4.27218
G92 E0
G1 X73.405 Y99.013 F7800.000
G1 F1500.000 E1.40000
G1 X74.037 Y98.984 F1200.000 E1.41165
G1 X74.065 Y99.013 E1.41240
G1 X74.697 Y98.984 E1.42405
G1 X74.725 Y99.013 E1.42480
G1 X75.357 Y98.984 E1.43644
G1 X75.385 Y99.013 E1.43719
G1 X76.017 Y98.984 E1.44884
G1 X76.045 Y99.013 E1.44959
G1 X76.677 Y98.984 E1.46124
G1 X76.705 Y99.013 E1.46199
G1 X77.337 Y98.984 E1.47364
G1 X77.365 Y99.013 E1.47439
G1 X77.997 Y98.984 E1.48604
G1 X78.025 Y99.013 E1.48679
G1 X78.656 Y98.984 E1.49843
G1 X78.685 Y99.013 E1.49918
G1 X79.316 Y98.984 E1.51083
G1 X79.345 Y99.013 E1.51158
G1 X79.976 Y98.984 E1.52323
G1 X80.005 Y99.013 E1.52398
G1 X80.636 Y98.984 E1.53563
G1 X80.665 Y99.013 E1.53638
G1 X81.296 Y98.984 E1.54803
G1 X81.325 Y99.013 E1.54878
G1 X81.956 Y98.984 E1.56042
G1 X81.985 Y99.013 E1.56117
G1 X82.616 Y98.984 E1.57282
G1 X82.645 Y99.013 E1.57357
G1 X83.276 Y98.984 E1.58522
G1 X83.305 Y99.013 E1.58597
G1 X83.936 Y98.984 E1.59762
G1 X83.965 Y99.013 E1.59837
G1 X84.596 Y98.984 E1.61002
G1 X84.625 Y99.013 E1.61077
G1 X85.256 Y98.984 E1.62241
G1 X85.285 Y99.013 E1.62316
G1 X85.916 Y98.984 E1.63481
G1 X85.945 Y99.013 E1.63556
G1 X86.576 Y98.984 E1.64721
G1 X86.605 Y99.013 E1.64796
G1 X87.236 Y98.984 E1.65961
G1 X87.265 Y99.013 E1.66036
G1 X87.896 Y98.984 E1.67201
G1 X87.925 Y99.013 E1.67276
G1 X88.556 Y98.984 E1.68440
G1 X88.585 Y99.013 E1.68515
G1 X89.216 Y98.984 E1.69680
G1 X89.245 Y99.013 E1.69755
G1 X89.876 Y98.984 E1.70920
G1 X89.905 Y99.013 E1.70995
G1 X90.536 Y98.984 E1.72160
G1 X90.565 Y99.013 E1.72235
G1 X91.196 Y98.984 E1.73400
G1 X91.225 Y99.013 E1.73475
G1 X91.856 Y98.984 E1.74639
G1 X91.885 Y99.013 E1.74714
G1 X92.516 Y98.984 E1.75879
G1 X92.545 Y99.013 E1.75954
G1 X93.176 Y98.984 E1.77119
G1 X93.205 Y99.013 E1.77194
G1 X93.836 Y98.984 E1.78359
G1 X93.865 Y99.013 E1.78434
G1 X94.496 Y98.984 E1.79599
G1 X94.525 Y99.013 E1.79674
G1 X95.156 Y98.984 E1.80838
G1 X95.184 Y99.013 E1.80913
G1 X95.816 Y98.984 E1.82078
G1 X95.844 Y99.013 E1.82153
G1 X96.476 Y98.984 E1.83318
G1 X96.504 Y99.013 E1.83393
G1 X97.136 Y98.984 E1.84558
G1 X97.164 Y99.013 E1.84633
G1 X97.796 Y98.984 E1.85798
G1 X97.824 Y99.013 E1.85873
G1 X98.456 Y98.984 E1.87037
G1 X98.484 Y99.013 E1.87112
G1 X99.116 Y98.984 E1.88277
G1 X99.144 Y99.013 E1.88352
G1 X99.776 Y98.984 E1.89517
G1 X99.804 Y99.013 E1.89592
G1 X100.436 Y98.984 E1.90757
G1 X100.464 Y99.013 E1.90832
G1 X101.095 Y98.984 E1.91997
G1 X101.124 Y99.013 E1.92072
G1 X101.755 Y98.984 E1.93236
G1 X101.784 Y99.013 E1.93311
G1 X102.415 Y98.984 E1.94476
G1 X102.444 Y99.013 E1.94551
G1 X103.075 Y98.984 E1.95716
G1 X103.104 Y99.013 E1.95791
G1 X103.735 Y98.984 E1.96956
G1 X103.764 Y99.013 E1.97031
G1 X104.395 Y98.984 E1.98196
G1 X104.424 Y99.013 E1.98270
G1 X105.055 Y98.984 E1.99435
G1 X105.084 Y99.013 E1.99510
G1 X105.715 Y98.984 E2.00675
G1 X105.744 Y99.013 E2.00750
G1 X106.375 Y98.984 E2.01915
G1 X106.404 Y99.013 E2.01990
G1 X107.035 Y98.984 E2.03155
G1 X107.064 Y99.013 E2.03230
G1 X107.695 Y98.984 E2.04395
G1 X107.724 Y99.013 E2.04469
G1 X108.355 Y98.984 E2.05634
G1 X108.384 Y99.013 E2.05709
G1 X109.015 Y98.984 E2.06874
G1 X109.044 Y99.013 E2.06949
G1 X109.675 Y98.984 E2.08114
G1 X109.704 Y99.013 E2.08189
G1 X110.335 Y98.984 E2.09354
G1 X110.364 Y99.013 E2.09429
G1 X110.995 Y98.984 E2.10594
G1 X111.024 Y99.013 E2.10668
G1 X111.655 Y98.984 E2.11833
G1 X111.684 Y99.013 E2.11908
G1 X112.315 Y98.984 E2.13073
G1 X112.344 Y99.013 E2.13148
G1 X112.975 Y98.984 E2.14313
G1 X113.004 Y99.013 E2.14388
G1 X113.635 Y98.984 E2.15553
G1 X113.664 Y99.013 E2.15628
G1 X114.295 Y98.984 E2.16793
G1 X114.324 Y99.013 E2.16867
G1 X114.955 Y98.984 E2.18032
G1 X114.984 Y99.013 E2.18107
G1 X115.615 Y98.984 E2.19272
G1 X115.644 Y99.013 E2.19347
G1 X116.275 Y98.984 E2.20512
G1 X116.304 Y99.013 E2.20587
G1 X116.935 Y98.984 E2.21752
G1 X116.964 Y99.013 E2.21827
G1 X117.595 Y98.984 E2.22992
G1 X117.623 Y99.013 E2.23066
G1 X118.255 Y98.984 E2.24231
G1 X118.283 Y99.013 E2.24306
G1 X118.915 Y98.984 E2.25471
G1 X118.943 Y99.013 E2.25546
G1 X119.575 Y98.984 E2.26711
G1 X119.603 Y99.013 E2.26786
G1 X120.235 Y98.984 E2.27951
G1 X120.263 Y99.013 E2.28026
G1 X120.895 Y98.984 E2.29191
G1 X120.923 Y99.013 E2.29265
G1 X121.555 Y98.984 E2.30430
G1 X121.583 Y99.013 E2.30505
G1 X122.215 Y98.984 E2.31670
G1 X122.243 Y99.013 E2.31745
G1 X122.875 Y98.984 E2.32910
G1 X122.903 Y99.013 E2.32985
G1 X123.534 Y98.984 E2.34150
G1 X123.563 Y99.013 E2.34225
G1 X124.195 Y98.984 E2.35390
G1 F1500.000 E0.95390
G92 E0
G1 Z0.600 F7800.000
G1 X127.458 Y100.775
G1 F1500.000 E1.40000
G1 X127.458 Y102.021 F2715.436 E1.43220
G1 X67.942 Y102.021 E2.97096
G1 X67.942 Y100.775 E3.00316
G1 X127.360 Y100.775 E4.53938
G1 F1500.000 E3.13938
G92 E0
G1 X125.308 Y99.371 F7800.000
G1 F1500.000 E1.40000
G1 X72.292 Y99.371 F2715.436 E2.77070
G1 X72.292 Y98.625 E2.78998
G1 X125.308 Y98.625 E4.16068
